**kern	**silbe	**kern	**silbe	**kern	**silbe
*ICvox	*	*ICvox	*	*ICvox	*
*A-:	*	*A-:	*	*A-:	*
*M4/4	*	*M4/4	*	*M4/4	*
*clefF4	*	*clefF4	*	*clefG2	*
r;	.	r;	.	r;	.
=1	=1	=1	=1	=1	=1
1r	.	1r	.	1r	.
=2	=2	=2	=2	=2	=2
1r	.	1r	.	1r	.
=3	=3	=3	=3	=3	=3
1r	.	1r	.	1r	.
=4	=4	=4	=4	=4	=4
1r	.	1r	.	1r	.
=5	=5	=5	=5	=5	=5
1r	.	1r	.	1r	.
=6	=6	=6	=6	=6	=6
1r	.	1r	.	1r	.
=7	=7	=7	=7	=7	=7
[2B-	Mm	1r	.	1r	.
8B-]	_	.	.	.	.
[8A-	_	.	.	.	.
4A-]	...	.	.	.	.
=8	=8	=8	=8	=8	=8
1r	.	1r	.	1r	.
=9	=9	=9	=9	=9	=9
4r	.	1r	.	1r	.
8r	.	.	.	.	.
[8d-	Mmm	.	.	.	.
4.d-]	_	.	.	.	.
8e-	_	.	.	.	.
=10	=10	=10	=10	=10	=10
8c	_	1r	.	1r	.
8c	_	.	.	.	.
8A-	_	.	.	.	.
16F	_	.	.	.	.
[16A-	_	.	.	.	.
8A-]	_	.	.	.	.
8F	_	.	.	.	.
4r	.	.	.	.	.
=11	=11	=11	=11	=11	=11
1r	.	1r	.	1r	.
=12	=12	=12	=12	=12	=12
1r	.	1r	.	1r	.
=13	=13	=13	=13	=13	=13
4.c	Mar-	1r	.	1r	.
8e-	-vin,	.	.	.	.
2r	.	.	.	.	.
=14	=14	=14	=14	=14	=14
2r	.	1r	.	1r	.
8r	.	.	.	.	.
16E-	he	.	.	.	.
[16A-	was	.	.	.	.
8A-]	_	.	.	.	.
8F	a	.	.	.	.
=15	=15	=15	=15	=15	=15
8c	friend	1r	.	1r	.
16B-	of	.	.	.	.
[16B-	mine	.	.	.	.
8B-]	_	.	.	.	.
8c	...	.	.	.	.
2r	.	.	.	.	.
=16	=16	=16	=16	=16	=16
2r	.	1r	.	1r	.
8r	.	.	.	.	.
8c	and	.	.	.	.
8B-	he	.	.	.	.
8A-	could	.	.	.	.
=17	=17	=17	=17	=17	=17
8B-	sing	1r	.	1r	.
16F	his	.	.	.	.
[16A-	song	.	.	.	.
4A-_	_	.	.	.	.
4A-]	...	.	.	.	.
4r	.	.	.	.	.
=18	=18	=18	=18	=18	=18
2r	.	1r	.	1r	.
8r	.	.	.	.	.
8c	his	.	.	.	.
8B-	heart	.	.	.	.
8A-	in	.	.	.	.
=19	=19	=19	=19	=19	=19
4c	ev-	1r	.	1r	.
8B-	-'ry	.	.	.	.
[8B-	line	.	.	.	.
8B-]	_	.	.	.	.
8c	_	.	.	.	.
4r	.	.	.	.	.
=20	=20	=20	=20	=20	=20
1r	.	1r	.	1r	.
=21	=21	=21	=21	=21	=21
8B-q	_	.	.	.	.
4.c	Mar-	1r	.	1r	.
8e-	-vin,	.	.	.	.
2r	.	.	.	.	.
=22	=22	=22	=22	=22	=22
2r	.	1r	.	1r	.
8r	.	.	.	.	.
8F	sang	.	.	.	.
8.A-	of	.	.	.	.
16F	the	.	.	.	.
=23	=23	=23	=23	=23	=23
8.c-	joy	1r	.	1r	.
[16B-	and	.	.	.	.
8B-]	_	.	.	.	.
[8B-	pain	.	.	.	.
8B-]	_	.	.	.	.
8c	_	.	.	.	.
4r	.	.	.	.	.
=24	=24	=24	=24	=24	=24
2r	.	1r	.	1r	.
8r	.	.	.	.	.
8c	He	.	.	.	.
8B-	o-	.	.	.	.
8A-	-pened	.	.	.	.
=25	=25	=25	=25	=25	=25
16B-	up	1r	.	1r	.
8r	.	.	.	.	.
16F	our	.	.	.	.
8r	.	.	.	.	.
[8A-	minds	.	.	.	.
2A-]	...	.	.	.	.
=26	=26	=26	=26	=26	=26
2r	.	1r	.	1r	.
16r	.	.	.	.	.
16F	And	.	.	.	.
8c	I	.	.	.	.
8B-	still	.	.	.	.
8A-	can	.	.	.	.
=27	=27	=27	=27	=27	=27
8.c	hear	1r	.	1r	.
[16B-	him	.	.	.	.
8B-]	_	.	.	.	.
[8B-	say	.	.	.	.
8B-]	_	.	.	.	.
8c	...	.	.	.	.
4r	.	.	.	.	.
=28	=28	=28	=28	=28	=28
2r	.	1r	.	1r	.
4r	.	.	.	.	.
4A-	Oh,	.	.	.	.
=29	=29	=29	=29	=29	=29
8A-	talk	1r	.	1r	.
16A-	to	.	.	.	.
16F	me,	.	.	.	.
4r	.	.	.	.	.
4r	.	.	.	.	.
8r	.	.	.	.	.
8c	so	.	.	.	.
=30	=30	=30	=30	=30	=30
16B-	you	1r	.	1r	.
8r	.	.	.	.	.
16A-	can	.	.	.	.
8r	.	.	.	.	.
8A-	see	.	.	.	.
4r	.	.	.	.	.
8r	.	.	.	.	.
8c	what's	.	.	.	.
=31	=31	=31	=31	=31	=31
8c	go-	1r	.	1r	.
16B-	-ing	.	.	.	.
[16B-	on	.	.	.	.
8B-]	_	.	.	.	.
8c	_	.	.	.	.
2r	.	.	.	.	.
=32	=32	=32	=32	=32	=32
1r	.	1r	.	1r	.
=33	=33	=33	=33	=33	=33
8A-	Say	1r	.	1r	.
16A-	you	.	.	.	.
16F	will	.	.	.	.
4r	.	.	.	.	.
2r	.	.	.	.	.
=34	=34	=34	=34	=34	=34
8.B-	sing	1r	.	1r	.
[16B-	your	.	.	.	.
8B-]	_	.	.	.	.
8A-	songs	.	.	.	.
4r	.	.	.	.	.
8r	.	.	.	.	.
8F	for-	.	.	.	.
=35	=35	=35	=35	=35	=35
8A-	-e-	1r	.	1r	.
16A-	-ver-	.	.	.	.
16F	-more,	.	.	.	.
8r	.	.	.	.	.
8A-	e-	.	.	.	.
16A-	-ver-	.	.	.	.
16F	-more,	.	.	.	.
8r	.	.	.	.	.
4r	.	.	.	.	.
=36	=36	=36	=36	=36	=36
8A-	e-	1r	.	1r	.
16A-	-ver-	.	.	.	.
16F	-more.	.	.	.	.
4r	.	.	.	.	.
8r	.	.	.	.	.
16c	Gon-	.	.	.	.
16c	-na	.	.	.	.
8e-	be	.	.	.	.
8c	some	.	.	.	.
=37	=37	=37	=37	=37	=37
8.f	sweet	1r	.	1r	.
[16e-	sounds	.	.	.	.
4e-_	_	.	.	.	.
4e-]	_	.	.	.	.
4r	.	.	.	.	.
=38	=38	=38	=38	=38	=38
16c-	co-	1r	.	1r	.
8c-	-min'	.	.	.	.
16B-	down,	.	.	.	.
[4A-	_	.	.	.	.
8A-]	_	.	.	.	.
8r	.	.	.	.	.
8F	on	.	.	.	.
8A-	the	.	.	.	.
=39	=39	=39	=39	=39	=39
8.c	night-	1r	.	1r	.
16B-	-shift.	.	.	.	.
4r	.	.	.	.	.
2r	.	.	.	.	.
=40	=40	=40	=40	=40	=40
2r	.	1r	.	1r	.
8r	.	.	.	.	.
8c	I	.	.	.	.
8B-	bet	.	.	.	.
8A-	you're	.	.	.	.
=41	=41	=41	=41	=41	=41
16B-	sing-	1r	.	1r	.
8F	-in'	.	.	.	.
[16A-	proud	.	.	.	.
4A-_	_	.	.	.	.
8A-]	...	.	.	.	.
8r	.	.	.	.	.
4r	.	.	.	.	.
=42	=42	=42	=42	=42	=42
4r	.	1r	.	1r	.
8r	.	.	.	.	.
[8A-	Oh,	.	.	.	.
8A-]	_	.	.	.	.
8c	I	.	.	.	.
8B-	bet	.	.	.	.
8A-	you'll	.	.	.	.
=43	=43	=43	=43	=43	=43
16B-	pull	1r	.	1r	.
8F	a	.	.	.	.
[16A-	crowd	.	.	.	.
4A-_	_	.	.	.	.
8A-]	_	.	.	.	.
8r	.	.	.	.	.
4r	.	.	.	.	.
=44	=44	=44	=44	=44	=44
2r	.	1r	.	1r	.
8r	.	.	.	.	.
16c	Gon-	.	.	.	.
16c	-na	.	.	.	.
8e-	be	.	.	.	.
8e-	a	.	.	.	.
=45	=45	=45	=45	=45	=45
*	*	*clefG2	*	*	*
8.f	long	8.c 8.e- 8.a-	Long	1r	.
[16e-	night,	[16c [16e- [16a-	night!	.	.
8e-]	_	4c_ 4e-_ 4a-_	_	.	.
8f	_	.	.	.	.
8r	.	4.c] 4.e-] 4.a-]	_	.	.
8F	it's	.	.	.	.
16A-	gon-	.	.	.	.
16A-	-na	.	.	.	.
8A-	be	8r	.	.	.
=46	=46	=46	=46	=46	=46
*	*	*clefF4	*	*	*
16c-	al	16c 16e- 16a-	Al	1r	.
8B-	_	8B- 8d- 8f	_	.	.
16B-	right,	[16A- [16c [16e-	right!	.	.
[4A-	_	4A-_ 4c_ 4e-_	_	.	.
8A-]	_	8A-] 8c] 8e-]	_	.	.
8r	.	8r	.	.	.
8F	on	4r	.	.	.
8A-	the	.	.	.	.
=47	=47	=47	=47	=47	=47
8.c	night-	1r	.	1r	.
16B-	-shift.	.	.	.	.
4r	.	.	.	.	.
2r	.	.	.	.	.
=48	=48	=48	=48	=48	=48
2r	.	1r	.	1r	.
8r	.	.	.	.	.
8c	You	.	.	.	.
8B-	found	.	.	.	.
8A-	a-	.	.	.	.
=49	=49	=49	=49	=49	=49
16B-	-no-	1r	.	1r	.
8F	-ther	.	.	.	.
[16A-	home,	.	.	.	.
4A-]	_	.	.	.	.
8r	.	.	.	.	.
8c	I	.	.	.	.
8e-	know	.	.	.	.
8e-	you're	.	.	.	.
=50	=50	=50	=50	=50	=50
8f	not	1r	.	1r	.
16f	a-	.	.	.	.
[16e-	-lone,	.	.	.	.
8e-]	_	.	.	.	.
8f	_	.	.	.	.
4r	.	.	.	.	.
8F	on	.	.	.	.
8A-	the	.	.	.	.
=51	=51	=51	=51	=51	=51
*	*	*clefG2	*	*	*
8.B-	night-	8.d- 8.f 8.a-	Night-	1r	.
16A-	-shift!	16c 16e- 16a-	-shift!	.	.
4r	.	4r	.	.	.
4r	.	2r	.	.	.
8r	.	.	.	.	.
16c-	Oh!	.	.	.	.
16B-	_	.	.	.	.
=52	=52	=52	=52	=52	=52
2r	.	1r	.	1r	.
8r	.	.	.	.	.
8c	You	.	.	.	.
8B-	found	.	.	.	.
8A-	a-	.	.	.	.
=53	=53	=53	=53	=53	=53
16B-	-no-	1r	.	1r	.
8F	-ther	.	.	.	.
[16A-	home,	.	.	.	.
4A-]	_	.	.	.	.
8r	.	.	.	.	.
8c	I	.	.	.	.
8e-	know	.	.	.	.
8e-	you're	.	.	.	.
=54	=54	=54	=54	=54	=54
8f	not	1r	.	1r	.
16f	a-	.	.	.	.
[16e-	-lone,	.	.	.	.
8e-]	_	.	.	.	.
8f	_	.	.	.	.
4r	.	.	.	.	.
8F	on	.	.	.	.
8A-	the	.	.	.	.
=55	=55	=55	=55	=55	=55
8.B-	night-	1r	.	1r	.
16A-	-shift!	.	.	.	.
4r	.	.	.	.	.
2r	.	.	.	.	.
=56	=56	=56	=56	=56	=56
1r	.	1r	.	1r	.
=57	=57	=57	=57	=57	=57
1r	.	1r	.	1r	.
=58	=58	=58	=58	=58	=58
1r	.	1r	.	1r	.
=59	=59	=59	=59	=59	=59
4.c	Ja-	1r	.	1r	.
8e-	-ckie,	.	.	.	.
4r	.	.	.	.	.
8r	.	.	.	.	.
[8c	Mmm	.	.	.	.
=60	=60	=60	=60	=60	=60
16c]	_	1r	.	1r	.
16B-	_	.	.	.	.
8A-	_	.	.	.	.
4r	.	.	.	.	.
8r	.	.	.	.	.
8c	Hey	.	.	.	.
8B-	what	.	.	.	.
8A-	ya	.	.	.	.
=61	=61	=61	=61	=61	=61
16c	do-	1r	.	1r	.
8B-	-in'	.	.	.	.
[16B-	know?	.	.	.	.
4B-_	_	.	.	.	.
8B-]	_	.	.	.	.
8r	.	.	.	.	.
4r	.	.	.	.	.
=62	=62	=62	=62	=62	=62
2r	.	1r	.	1r	.
8r	.	.	.	.	.
8c	It	.	.	.	.
8B-	seems	.	.	.	.
8A-	like	.	.	.	.
=63	=63	=63	=63	=63	=63
8B-	yes-	1r	.	1r	.
16F	-ter-	.	.	.	.
[16A-	-day,	.	.	.	.
4A-_	_	.	.	.	.
4A-]	_	.	.	.	.
4r	.	.	.	.	.
=64	=64	=64	=64	=64	=64
2r	.	1r	.	1r	.
8r	.	.	.	.	.
8c	when	.	.	.	.
8B-	we	.	.	.	.
8A-	weere	.	.	.	.
=65	=65	=65	=65	=65	=65
8B-q	_	.	.	.	.
8.c	wor-	1r	.	1r	.
8B-q	_	.	.	.	.
[16c	-kin'	.	.	.	.
8c]	_	.	.	.	.
[8B-	out	.	.	.	.
2B-]	...	.	.	.	.
=66	=66	=66	=66	=66	=66
1r	.	1r	.	1r	.
=67	=67	=67	=67	=67	=67
8B-q	_	.	.	.	.
4.c	Ja-	1r	.	1r	.
8e-	-ckie,	.	.	.	.
4r	.	.	.	.	.
16c	whoa	.	.	.	.
16B-	_	.	.	.	.
8A-	...	.	.	.	.
=68	=68	=68	=68	=68	=68
2r	.	1r	.	1r	.
8r	.	.	.	.	.
8c	You	.	.	.	.
8B-	set	.	.	.	.
8A-	the	.	.	.	.
=69	=69	=69	=69	=69	=69
8B-q	_	.	.	.	.
8.c	world	1r	.	1r	.
8cq	_	.	.	.	.
[16B-	on	.	.	.	.
8B-]	_	.	.	.	.
[8B-	fi	.	.	.	.
8B-]	_	.	.	.	.
[8c	re!	.	.	.	.
8c]	_	.	.	.	.
8r	.	.	.	.	.
=70	=70	=70	=70	=70	=70
2r	.	1r	.	1r	.
8r	.	.	.	.	.
8c	You	.	.	.	.
8B-	came	.	.	.	.
8A-	and	.	.	.	.
=71	=71	=71	=71	=71	=71
8.B-	gif-	1r	.	1r	.
[16F	-ted	.	.	.	.
8F]	_	.	.	.	.
[8A-	us,	.	.	.	.
2A-]	_	.	.	.	.
=72	=72	=72	=72	=72	=72
2r	.	1r	.	1r	.
8r	.	.	.	.	.
8c	your	.	.	.	.
8B-	love	.	.	.	.
8A-	and	.	.	.	.
=73	=73	=73	=73	=73	=73
8B-q	_	.	.	.	.
8.c	lif	1r	.	1r	.
8B-q	_	.	.	.	.
[16c	ted	.	.	.	.
8c]	_	.	.	.	.
[8B-	us,	.	.	.	.
4B-]	_	.	.	.	.
4r	.	.	.	.	.
=74	=74	=74	=74	=74	=74
8.c	high-	1r	.	1r	.
16d-	-er	.	.	.	.
8r	.	.	.	.	.
8c	and	.	.	.	.
4e-	high-	.	.	.	.
8f	-er!	.	.	.	.
8e-	_	.	.	.	.
=75	=75	=75	=75	=75	=75
8A-	Keep	1r	.	1r	.
16A-	it	.	.	.	.
16F	up,	.	.	.	.
4r	.	.	.	.	.
4r	.	.	.	.	.
16r	.	.	.	.	.
8.c	and	.	.	.	.
=76	=76	=76	=76	=76	=76
8.B-	we'll	1r	.	1r	.
[16B-	be	.	.	.	.
8B-]	_	.	.	.	.
[8F	there,	.	.	.	.
4F]	_	.	.	.	.
4r	.	.	.	.	.
=77	=77	=77	=77	=77	=77
8.c	at	1r	.	1r	.
[16c	your	.	.	.	.
8c]	_	.	.	.	.
[8B-	side!	.	.	.	.
8B-]	_	.	.	.	.
8c	_	.	.	.	.
4r	.	.	.	.	.
=78	=78	=78	=78	=78	=78
2r	.	1r	.	1r	.
8.c	Oh,	.	.	.	.
[16B-	_	.	.	.	.
16B-]	_	.	.	.	.
16A-	_	.	.	.	.
8F	_	.	.	.	.
=79	=79	=79	=79	=79	=79
8A-	say	1r	.	1r	.
16A-	you	.	.	.	.
16F	will,	.	.	.	.
4r	.	.	.	.	.
2r	.	.	.	.	.
=80	=80	=80	=80	=80	=80
8.B-	sing	1r	.	1r	.
[16B-	your	.	.	.	.
8B-]	_	.	.	.	.
[8A-	songs,	.	.	.	.
4A-]	_	.	.	.	.
8r	.	.	.	.	.
8F	for-	.	.	.	.
=81	=81	=81	=81	=81	=81
8A-	-e-	1r	.	1r	.
16A-	-ver-	.	.	.	.
16F	-more,	.	.	.	.
8r	.	.	.	.	.
8A-	e-	.	.	.	.
16A-	-ver-	.	.	.	.
16F	-more,	.	.	.	.
8r	.	.	.	.	.
8A-	e-	.	.	.	.
16A-	-ver-	.	.	.	.
16F	-more...	.	.	.	.
=82	=82	=82	=82	=82	=82
2r	.	1r	.	1r	.
8r	.	.	.	.	.
16c	gon-	.	.	.	.
16c	-na	.	.	.	.
8e-	be	.	.	.	.
8c	some	.	.	.	.
=83	=83	=83	=83	=83	=83
*	*	*clefF4	*	*	*
8.f 8.b-	sweet	8.A- 8.e-	Sweet	1r	.
[16e- [16a-	sounds,	[16A- [16e-	sounds!	.	.
4e-_ 4a-_	_	4A-_ 4e-_	_	.	.
4e-] 4a-]	_	4.A-] 4.e-]	_	.	.
4r	.	.	.	.	.
.	.	8r	.	.	.
=84	=84	=84	=84	=84	=84
*	*	*clefG2	*	*	*
8.c 8.e-	co-	8.c 8.e- 8.a-	Co-	1r	.
16B- 16d-	-min'	[16c [16e- [16a-	-min'	.	.
8A- 8c	_	8c] 8e-] 8a-]	_	.	.
16B- 16d-	down,	[8B- [8d- [8f [8b-	down!	.	.
[16A- [16c	_	.	.	.	.
4A-] 4c]	_	8B-] 8d-] 8f] 8b-]	_	.	.
.	.	8r	.	.	.
8F	on	4r	.	.	.
8A-	the	.	.	.	.
=85	=85	=85	=85	=85	=85
8.c	night-	1r	.	1r	.
16B-	-shift!	.	.	.	.
4r	.	.	.	.	.
2r	.	.	.	.	.
=86	=86	=86	=86	=86	=86
2r	.	1r	.	1r	.
8r	.	.	.	.	.
8c 8e-	I	.	.	.	.
8c 8e-	bet	.	.	.	.
8A- 8e-	you're	.	.	.	.
=87	=87	=87	=87	=87	=87
16B- 16e-	sing-	1r	.	1r	.
8F 8d-	-in'	.	.	.	.
16A- [16d-	proud	.	.	.	.
[4A- 4d-_	_	.	.	.	.
8A-] 8d-]	_	.	.	.	.
16c 16f	_	.	.	.	.
16c 16f	...	.	.	.	.
4r	.	.	.	.	.
=88	=88	=88	=88	=88	=88
2r	.	1r	.	1r	.
8A-	Oh,	.	.	.	.
8c 8d-	I	.	.	.	.
8B- 8d-	bet	.	.	.	.
8A- 8d-	you'll	.	.	.	.
=89	=89	=89	=89	=89	=89
16B- 16d-	pull	1r	.	1r	.
8F 8c	a	.	.	.	.
[16A- [16c	crowd	.	.	.	.
4A-_ 4c_	_	.	.	.	.
16A-] 16c]	_	.	.	.	.
16B-	_	.	.	.	.
8A-	_	.	.	.	.
4r	.	.	.	.	.
=90	=90	=90	=90	=90	=90
2r	.	1r	.	1r	.
8r	.	.	.	.	.
16c	Gon-	.	.	.	.
16c	-na	.	.	.	.
8e-	be	.	.	.	.
8e-	a	.	.	.	.
=91	=91	=91	=91	=91	=91
*	*	*	*	*clefF4	*
8.f	long	4r	.	8.A- 8.e-	Long
[16e-	night,	.	.	[16A- [16e-	night!
8e-]	_	16c	Gon-	4A-_ 4e-_	_
.	.	16c	-na	.	.
8f	_	16e-	be	.	.
.	.	16e-	a	.	.
8r	.	8.f	long	4.A-] 4.e-]	_
8F	it's	.	.	.	.
.	.	[16e-	night!	.	.
16A-	gon-	8e-]	_	.	.
16A-	-na	.	.	.	.
8A-	be	8f	_	8r	.
=92	=92	=92	=92	=92	=92
8c-	al	1r	.	4.c 4.e- 4.a-	Al-
8B-	_	.	.	.	.
8A-	_	.	.	.	.
[8A-	right,	.	.	[8d- [8f [8b-	-right!
8A-]	_	.	.	4d-] 4f] 4b-]	_
8r	.	.	.	.	.
8F	on	.	.	4r	.
8A-	the	.	.	.	.
=93	=93	=93	=93	=93	=93
8.c 8.f	night-	1r	.	1r	.
16B- 16e-	-shift!	.	.	.	.
4r	.	.	.	.	.
2r	.	.	.	.	.
=94	=94	=94	=94	=94	=94
2r	.	1r	.	1r	.
8r	.	.	.	.	.
8c 8e-	You	.	.	.	.
8B- 8d-	found	.	.	.	.
8A- 8c	a-	.	.	.	.
=95	=95	=95	=95	=95	=95
16B- 16e-	-no-	1r	.	1r	.
8F 8d-	-ther	.	.	.	.
[16A- [16d-	home,	.	.	.	.
4A-] 4d-]	_	.	.	.	.
8r	.	.	.	.	.
8c 8e-	I	.	.	.	.
8e-	know	.	.	.	.
8e- 8a-	you're	.	.	.	.
=96	=96	=96	=96	=96	=96
8f 8a-	not	1r	.	1r	.
16f 16a-	a-	.	.	.	.
[16e- [16g	-lone,	.	.	.	.
8e-] 8g]	_	.	.	.	.
8f 8a-	_	.	.	.	.
4r	.	.	.	.	.
8A- 8c	on	.	.	.	.
8G 8B-	the	.	.	.	.
=97	=97	=97	=97	=97	=97
8.A- 8.c	night-	1r	.	1r	.
16F 16A-	-shift!	.	.	.	.
4r	.	.	.	.	.
8r	.	.	.	.	.
16c	Gon-	.	.	.	.
16c	-na	.	.	.	.
8e-	be	.	.	.	.
8c	some	.	.	.	.
=98	=98	=98	=98	=98	=98
8.f	sweet	4r	.	1r	.
[16e-	sounds!	.	.	.	.
4e-]	_	8r	.	.	.
.	.	[8ee-	Sweet	.	.
8e-	_	8ee-]	_	.	.
8f	_	8dd-	_	.	.
4r	.	16cc	sounds!	.	.
.	.	16b-	_	.	.
.	.	8a-	_	.	.
=99	=99	=99	=99	=99	=99
8c	Co-	1r	.	1r	.
16B-	-min'	.	.	.	.
[16A-	_	.	.	.	.
8A-]	_	.	.	.	.
16B-	down,	.	.	.	.
[16A-	_	.	.	.	.
4A-]	_	.	.	.	.
8F	on	.	.	.	.
8A-	the	.	.	.	.
=100	=100	=100	=100	=100	=100
8.c	night-	1r	.	1r	.
16B-	-shift	.	.	.	.
8r	.	.	.	.	.
[8e-	Oh,	.	.	.	.
4e-]	_	.	.	.	.
8e-	on	.	.	.	.
8f	the	.	.	.	.
=101	=101	=101	=101	=101	=101
8.c	night	1r	.	1r	.
16B-	shift	.	.	.	.
4r	.	.	.	.	.
8r	.	.	.	.	.
8c	I	.	.	.	.
8B-	bet	.	.	.	.
8A-	you're	.	.	.	.
=102	=102	=102	=102	=102	=102
16B-	sing-	2r	.	1r	.
8F	-in'	.	.	.	.
[16A-	proud	.	.	.	.
4A-_	_	.	.	.	.
8A-]	_	8e-	Know	.	.
8c	_	8e-	you're	.	.
8c	_	8e-	sing-	.	.
8r	.	16e-	-in	.	.
.	.	[16e-	proud!	.	.
=103	=103	=103	=103	=103	=103
4r	.	16e-]	_	1r	.
.	.	[8.d-	_	.	.
8r	.	8d-]	_	.	.
[8A-	Oh,	8e-	_	.	.
8A-]	_	2r	.	.	.
8c	I	.	.	.	.
8B-	bet	.	.	.	.
8A-	you'll	.	.	.	.
=104	=104	=104	=104	=104	=104
*	*	*clefF4	*	*	*
8B-	pull	2r	.	1r	.
16F	a	.	.	.	.
[16A-	crowd	.	.	.	.
4A-_	_	.	.	.	.
4A-]	_	4r	.	.	.
4r	.	8c	Oh,	.	.
.	.	[8A-	yeah	.	.
=105	=105	=105	=105	=105	=105
2r	.	4.A-]	....	1r	.
.	.	8r	.	.	.
8r	.	2r	.	.	.
16c	Gon-	.	.	.	.
16c	-na	.	.	.	.
8e-	be	.	.	.	.
8e-	a	.	.	.	.
=106	=106	=106	=106	=106	=106
8.f	long	4r	.	8.A- 8.e-	_
[16e-	night!	.	.	[16A- [16e-	_
8e-]	_	16c	Gon-	4A-_ 4e-_	_
.	.	16c	-na	.	.
8f	_	8e-	be	.	.
8r	.	4f	al	4.A-] 4.e-]	_
8F	It's	.	.	.	.
16A-	gon-	8e-	_	.	.
16A-	-na	.	.	.	.
16A-	be	8f	_	8r	.
[16c	al	.	.	.	.
=107	=107	=107	=107	=107	=107
*	*	*	*	*clefG2	*
16c-	_	4c	_	4.c 4.e- 4.a-	_
16B-	_	.	.	.	.
16A-	_	.	.	.	.
[16A-	right,	.	.	.	.
4A-_	_	8B-	_	.	.
.	.	8c	_	[8d- [8f [8b-	_
8A-]	_	8B-	right	4d-] 4f] 4b-]	_
8r	.	[8A-	_	.	.
8F	on	4A-]	...	4r	.
8A-	the	.	.	.	.
=108	=108	=108	=108	=108	=108
8.c] 8.f	night-	2r	.	1r	.
16B- 16e-	-shift!	.	.	.	.
4r	.	.	.	.	.
2r	.	4r	.	.	.
.	.	8F	On	.	.
.	.	8A-	the	.	.
=109	=109	=109	=109	=109	=109
2r	.	8.c	night-	1r	.
.	.	16B-	-shift!	.	.
.	.	4r	.	.	.
8r	.	2r	.	.	.
8e-	You	.	.	.	.
8d-	found	.	.	.	.
16c-	a-	.	.	.	.
16d-	-no	.	.	.	.
=110	=110	=110	=110	=110	=110
16d-	_	1r	.	1r	.
16c-	ther	.	.	.	.
8d-	home,	.	.	.	.
16c-	_	.	.	.	.
16A-	_	.	.	.	.
8r	.	.	.	.	.
8r	.	.	.	.	.
8c	I	.	.	.	.
8e- 8a-	know	.	.	.	.
8e- 8a-	you're	.	.	.	.
=111	=111	=111	=111	=111	=111
8f 8a-	not	1r	.	1r	.
16f 16a-	a-	.	.	.	.
[16g- [16b-	-lone!	.	.	.	.
16g-] 16b-]	_	.	.	.	.
16f 16a-	_	.	.	.	.
8e- 8g	_	.	.	.	.
4r	.	.	.	.	.
8F	On	.	.	.	.
8A-	the	.	.	.	.
=112	=112	=112	=112	=112	=112
8.B-	night-	1r	.	8.d- 8.f 8.a-	Night-
16A-	-shift!	.	.	16c 16e- 16a-	-shift!
4r	.	.	.	4r	.
2r	.	.	.	2r	.
=113	=113	=113	=113	=113	=113
1r	.	1r	.	1r	.
=114	=114	=114	=114	=114	=114
1r	.	1r	.	1r	.
r;	.	r;	.	r;	.
r;	.	r;	.	r;	.
*-	*-	*-	*-	*-	*-
!!!ENC: Nathaniel Condit-Schultz
!!!MBID: 96334783-24a2-445b-bf43-1623262af116
